X:17
T:The Burning Flag
C:Corwin Zekley
L:1/8
M:4/4
K:Gmin
"Gm" GD D/D/D dcBd | cBAF G2 DF | GD D/D/D GABd |"Dm" f3"C" =e2 c BA |$"Gm" GD D/D/D dcBd | %5
 cBAF G2 GA |"Bb" B2 f=e dgfe |"A" agf=e"D" d4 |$"Gm" GD D/D/D dcBd | cBAF G2 DF | GD D/D/D GABd | %11
"Dm" f3"C" =e2 c BA |$"Gm" GD D/D/D dcBd | cBAF G2 DF |"Bb" G2 BA cA^cA |"D" d3 d z2 df |$ %16
"Gm" gd d/d/d gabg |"F" a3 f2 c df |"Gm" gd d/d/d gafg | =efde"C" c4 |$"Gm" gd d/d/d gabg | %21
"F" a3 f2 c df |"Gm" g/a/g fd fdcB |"Dm" dcBA"Gm" G2 Bd |$"Gm" gd d/d/d gabg |"F" a3 f2 c df | %26
"Gm" gd d/d/d gabg |"C" abc'a"D" d'4 |$"D" d'd d/d/d c'd d/d/d | bd d/d/d abab |"Gm" g2 fd cBGF | %31
"Dm" DCB,A,"Gm" G,4 |] %32

